X:1     
T:The Spotted Cow
B: Purslow, F, (1968), The Wanton Seed, EDFS, London
S:Amos Ash, COmbe Florey,Somerset. April/May 1905
Z:Hammond S.4
F:http://www.folkinfo.org/songs
M:6/8     %Meter
L:1/8     %
K:F
C |C2 A A2 G |F2 A C2 F |(FA)c (cB)A | G3-G2
w:One morn-ing in the month of May,  As from_ my cot_ I strayed_
A |B2 c d2 c |(cB)A (GA)B |c2 (FA)FD |C3-C2 z
w:Just at the dawn-ing of_ the day,_ I met a charm_ ing maid_
Hc |(dc)f A2 G |(F3F2) z |]
w:I met_ a charm-ing maid*